X:271
T: Dayeinu
O:klezmer
R: freilach
B: Favorite Hebrew Songs for Piano, Albert Rozin, p.39
Z: John Chambers <jc@trillian.mit.edu>
M: 2/4
L: 1/8
K: D
|: "D"FA AA | AB "A7"AG | "D"FA AA | AB "A7"AG | "D"FA "A7"EG |
w: I-lu na-tan na-tan la-nu na-tan la-nu et ha-ho-ra, na-tan la-nu
w: I-lu ho-tsi- ho-tsi-a-nu ho-tsi-a-nu mi-mits-ra-yim, ho-tsi-a-nu
| "D"FA "A7"EG | "D"F2 "A7"E2 | "D"D4 :: "D"F2 F2 | "A7"AG- G2 | G2 G2 |
w: et ha-ho-ra, da-yei-nu. Da-da-yei-nu, da-da-
w: mi-mits-ra-yim, da-yei-nu. Da-da-yei-nu, da-da-
| "D"BA- A2 | A2 A2 | "A7"dc- cc | cA Bc |1 "D"dA FD :|2 "D"d4 |]
w: yei-nu, da-da-yei-nu, da-yei-nu, da-yei-nu, da-yei-nu. \-nu.





